source/images/grapheme5.svg

<svg width="222" height="149" viewBox="0 0 222 149" fill="none" xmlns="http://www.w3.org/2000/svg">
<path d="M76.0027 56.9506C83.7366 24.3696 113.101 0 147.995 0C188.751 0 222 33.242 222 73.9976C222 114.76 188.751 148.002 147.995 148.002C117.706 148.002 91.5807 129.641 80.1524 103.486C140.548 101.254 150.808 56.9506 150.808 56.9506H76.0027Z" fill="#080808"/>
<path d="M0 56.9579H75.9953C74.6953 62.4371 73.9829 68.1365 73.9829 73.9976C73.9829 84.4711 76.1936 94.4451 80.145 103.486C78.588 103.545 77.0236 103.597 75.4004 103.597C10.7747 103.597 0 56.9579 0 56.9579Z" fill="#080808"/>
<path d="M151.146 56.8992H75.9806C74.6733 62.3856 73.9608 68.0924 73.9608 73.9682C73.9608 84.4564 76.1789 94.4378 80.1524 103.494C140.841 101.261 151.146 56.8992 151.146 56.8992Z" fill="#34AA51"/>
</svg>

<svg width="222" height="149" fill="none" xmlns="http://www.w3.org/2000/svg"><path d="M76.003 56.95C83.737 24.37 113.1 0 147.995 0 188.751 0 222 33.242 222 73.998c0 40.762-33.249 74.004-74.005 74.004-30.289 0-56.414-18.361-67.843-44.516 60.396-2.232 70.656-46.535 70.656-46.535H76.003zM0 56.958h75.995a73.707 73.707 0 0 0-2.012 17.04 73.468 73.468 0 0 0 6.162 29.488 124.03 124.03 0 0 1-4.745.111c-64.625 0-75.4-46.64-75.4-46.64z" fill="#080808"/><path d="M151.146 56.9H75.981a73.516 73.516 0 0 0-2.02 17.068 73.297 73.297 0 0 0 6.191 29.526c60.689-2.233 70.994-46.595 70.994-46.595z" fill="#34AA51"/></svg>
